static/assets/img/icons/theme/communication/chat-smile.svg

<svg height="24" viewBox="0 0 24 24" width="24" xmlns="http://www.w3.org/2000/svg"><g fill="none" fill-rule="evenodd"><path d="m0 0h24v24h-24z" opacity="0"/><g fill="#000"><path d="m5 15-2 6.5 6.5-2z" opacity=".3"/><path d="m13 2c5.5228475 0 10 4.4771525 10 10s-4.4771525 10-10 10-10-4.4771525-10-10 4.4771525-10 10-10zm-5.83205029 11.5547002c1.50963156 2.2644473 3.47771899 3.4452998 5.83205029 3.4452998s4.3224187-1.1808525 5.8320503-3.4452998c.3063525-.4595287.1821786-1.080398-.2773501-1.3867505s-1.080398-.1821786-1.3867505.2773501c-1.1570351 1.7355527-2.522281 2.5547002-4.1679497 2.5547002s-3.0109146-.8191475-4.16794971-2.5547002c-.30635245-.4595287-.9272218-.5837026-1.38675049-.2773501-.45952868.3063525-.58370255.9272218-.27735009 1.3867505z"/></g></g></svg>

<svg width="24px" height="24px" viewBox="0 0 24 24" version="1.1" xmlns="http://www.w3.org/2000/svg" xmlns:xlink="http://www.w3.org/1999/xlink">
    <title>Icon For Chat-smile</title>
    <g stroke="none" stroke-width="1" fill="none" fill-rule="evenodd">
        <rect opacity="0" x="0" y="0" width="24" height="24"></rect>
        <polygon fill="#000000" opacity="0.3" points="5 15 3 21.5 9.5 19.5"></polygon>
        <path d="M13,2 C18.5228475,2 23,6.4771525 23,12 C23,17.5228475 18.5228475,22 13,22 C7.4771525,22 3,17.5228475 3,12 C3,6.4771525 7.4771525,2 13,2 Z M7.16794971,13.5547002 C8.67758127,15.8191475 10.6456687,17 13,17 C15.3543313,17 17.3224187,15.8191475 18.8320503,13.5547002 C19.1384028,13.0951715 19.0142289,12.4743022 18.5547002,12.1679497 C18.0951715,11.8615972 17.4743022,11.9857711 17.1679497,12.4452998 C16.0109146,14.1808525 14.6456687,15 13,15 C11.3543313,15 9.9890854,14.1808525 8.83205029,12.4452998 C8.52569784,11.9857711 7.90482849,11.8615972 7.4452998,12.1679497 C6.98577112,12.4743022 6.86159725,13.0951715 7.16794971,13.5547002 Z" fill="#000000"></path>
    </g>
</svg>
